!!!SOCIAL_FUNCTION:	bird dance songs
!!!PDT:	1956
!!!OTL: No_144_Screech_Owl_Dance_Song_(d).krn
!!!LANG: Non-Tone
!!!LING_GROUP: Muskogean
!!!REG: Florida
**kern
*staff1
=1-
*clefF4
*k[b-]
*M2/4
4r
8c\L
8c\J
=2!|:
4.d\
8c\
=3
8A\L
[8A\J
8A\L]
8c\J
=4||
*M3/4
16G\LL
16G\J
[8G\J
4G\_
8G\L]
8F\J
=5||
*M2/4
8D\L
[8F\J
8F\L]
8A\J
=6
16F\LL
16F\J
[8F\J
8F\L]
8G\J
=7||
*M3/4
8F\L
8F\J
4F\
4r
=8||
*M2/4
8F\L
8A\J
8F\L
8F\J
=9
[4A\
8A\L]
16B-\L
16A\JJ
=10
4.G\
8F\
=11
8D\L
[8D\J
8D\L]
8A\J
=12
16F\LL
16F\J
[8F\J
8F\L]
8G\J
=13
8F\L
8F\J
4r
=14
4.r
8G\
=15
8F\L
8F\J
8c\L
8c\J
=16:|!
*M2/4
4c\
4c\
=17||
*M3/4
4G\
4F\
4A\
=18
[2G\
8G\L]
8F\J
=19||
*M2/4
4G\
4F\
=20
4C/
4C/
=21
4.r
8F\
=22
8F\L
8E\J
4F\
=23
4.G\
8F\
=24
2F\
=25||
*M3/4
(8G\L
8F\J)
4F\
4F\
=26||
*M2/4
4d\
8c\L
8c\J
=27||
*M3/4
4c\
4B-\
4d\
=28||
*M2/4
2c\
=29
8B-\L
8B-\J
4G\
=30
4r
4F\
=31
2F\
=32
8C/L
8C/J
4F\
=33||
*M3/4
(8G\L
8F\J)
4F\
4F\
=34||
*M2/4
4c\
8G\L
8G\J
=35||
*M3/4
4G\
4F\
4A\
=36
2G\
4r
=37||
*M2/4
8r
8F\
4F\
=38||
*M3/4
4C/
4C/
4F\
=39||
*M2/4
2F\
=40||
*M3/4
(8G\L
8F\J)
4F\
4F\
==
*-
